icons/actions/16/run-build-install-root.svg

<svg xmlns="http://www.w3.org/2000/svg" viewBox="0 0 16 16">
  <g inkscape:label="Capa 1" inkscape:groupmode="layer" id="layer1" transform="translate(-421.71429,-531.79074)">
    <path style="fill:#da4453;fill-opacity:1;fill-rule:evenodd;stroke:none" d="M 7 2 L 7 3.1015625 A 5 5 0 0 0 5.2460938 3.8320312 L 4.4648438 3.0507812 L 3.0507812 4.4648438 L 3.8320312 5.2460938 A 5 5 0 0 0 3.1054688 7 L 2 7 L 2 9 L 3.1015625 9 A 5 5 0 0 0 3.8320312 10.753906 L 3.0507812 11.535156 L 4.4648438 12.949219 L 5.2460938 12.167969 A 5 5 0 0 0 7 12.894531 L 7 14 L 8 14 L 8 12 A 4 4 0 0 1 5.1308594 10.787109 A 4 4 0 0 1 4 8 A 4 4 0 0 1 5.2128906 5.1308594 A 4 4 0 0 1 8 4 A 4 4 0 0 1 10.869141 5.2128906 A 4 4 0 0 1 12 8 L 14 8 L 14 7 L 12.898438 7 A 5 5 0 0 0 12.167969 5.2460938 L 12.949219 4.4648438 L 11.535156 3.0507812 L 10.753906 3.8320312 A 5 5 0 0 0 9 3.1054688 L 9 2 L 7 2 z " transform="translate(421.71429,531.79074)" id="path4146"/>
    <path style="fill:#da4453;fill-opacity:1;fill-rule:evenodd;stroke:none;stroke-width:1px;stroke-linecap:butt;stroke-linejoin:miter;stroke-opacity:1" d="m 428.71429,537.79074 0,4 3,-2 z" id="path4180" inkscape:connector-curvature="0" sodipodi:nodetypes="cccc"/>
    <path style="color:#000000;display:inline;overflow:visible;visibility:visible;fill:#da4453;fill-opacity:1;fill-rule:nonzero;stroke:none;stroke-width:2;marker:none;enable-background:accumulate" d="M 11 9 L 11 12.09375 L 9 10.09375 L 9 11.5 L 11.28125 13.8125 L 11.5 14 L 11.71875 13.8125 L 14 11.5 L 14 10.09375 L 12 12.09375 L 12 9 L 11 9 z " transform="translate(421.71429,531.79074)" id="rect3015"/>
  </g>
</svg>

<svg xmlns="http://www.w3.org/2000/svg" viewBox="0 0 16 16">
 <g fill="#da4453" transform="translate(-421.71-531.79)">
  <g fill-rule="evenodd">
   <path d="m7 2v1.102a5 5 0 0 0 -1.753906 .730469l-.781-.781-1.414 1.414.781.781a5 5 0 0 0 -.726562 1.753906h-1.105v2h1.102a5 5 0 0 0 .730469 1.753906l-.781.781 1.414 1.414.781-.781a5 5 0 0 0 1.753906 .726562v1.105h1v-2a4 4 0 0 1 -2.869141 -1.212891 4 4 0 0 1 -1.130859 -2.787109 4 4 0 0 1 1.212891 -2.869141 4 4 0 0 1 2.787109 -1.130859 4 4 0 0 1 2.869141 1.212891 4 4 0 0 1 1.130859 2.787109h2v-1h-1.102a5 5 0 0 0 -.730469 -1.753906l.781-.781-1.414-1.414-.781.781a5 5 0 0 0 -1.753906 -.726562v-1.105z" transform="translate(421.71 531.79)"/>
   <path d="m428.71 537.79v4l3-2z"/>
  </g>
  <path color="#000" d="m432.71 540.79v3.094l-2-2v1.406l2.281 2.313.219.188.219-.188 2.281-2.313v-1.406l-2 2v-3.094z"/>
 </g>
</svg>
